icons/Cake.svg

<svg width="24" height="24" viewBox="0 0 24 24" fill="none" xmlns="http://www.w3.org/2000/svg">
<path fill-rule="evenodd" clip-rule="evenodd" d="M11,4.75c0,-0.5 0.25,-1 1,-1.5c0.75,0.5 1,1 1,1.5c0,0.75 -0.5,1 -1,1c-0.5,0 -1,-0.25 -1,-1zM8,7.25c0.41421,0 0.75,0.33579 0.75,0.75v2.25h2.5v-2.25c0,-0.41421 0.3358,-0.75 0.75,-0.75c0.4142,0 0.75,0.33579 0.75,0.75v2.25h2.5v-2.25c0,-0.41421 0.3358,-0.75 0.75,-0.75c0.4142,0 0.75,0.33579 0.75,0.75v2.25h1.75c1.2426,0 2.25,1.0074 2.25,2.25v3.4913v0.0163v4.2424h1c0.4142,0 0.75,0.3358 0.75,0.75c0,0.4142 -0.3358,0.75 -0.75,0.75h-1.75h-16h-1.75c-0.41421,0 -0.75,-0.3358 -0.75,-0.75c0,-0.4142 0.33579,-0.75 0.75,-0.75h1v-4.2413v-0.0163v-3.4924c0,-1.2426 1.00736,-2.25 2.25,-2.25h1.75v-2.25c0,-0.41421 0.33579,-0.75 0.75,-0.75zM18.5,11.75h-2.5h-4h-4h-2.5c-0.41421,0 -0.75,0.3358 -0.75,0.75v2.0503c0.92251,-0.4711 2.04985,-0.3879 2.9,0.2497l1.6,1.2c0.44444,0.3333 1.0556,0.3333 1.5,0l1.6,-1.2c0.9778,-0.7333 2.3222,-0.7333 3.3,0l1.6,1.2c0.4444,0.3333 1.0556,0.3333 1.5,0l0.5,-0.375v-3.125c0,-0.4142 -0.3358,-0.75 -0.75,-0.75zM19.25,20.25v-2.8003c-0.9225,0.4711 -2.0499,0.3879 -2.9,-0.2497l-1.6,-1.2c-0.4444,-0.3333 -1.0556,-0.3333 -1.5,0l-1.6,1.2c-0.9778,0.7333 -2.32222,0.7333 -3.3,0l-1.6,-1.2c-0.44444,-0.3333 -1.05556,-0.3333 -1.5,0l-0.5,0.375v3.875zM17,4.75c0,0.75 -0.5,1 -1,1c-0.5,0 -1,-0.25 -1,-1c0,-0.5 0.25,-1 1,-1.5c0.75,0.5 1,1 1,1.5zM7,4.75c0,-0.5 0.25,-1 1,-1.5c0.75,0.5 1,1 1,1.5c0,0.75 -0.5,1 -1,1c-0.5,0 -1,-0.25 -1,-1z" fill="#002B51"/>
</svg>

<svg width="24" height="24" viewBox="0 0 24 24" fill="none" xmlns="http://www.w3.org/2000/svg">
<path fill-rule="evenodd" clip-rule="evenodd" d="M12 5.75C12.5 5.75 13 5.5 13 4.75C13 4.25 12.75 3.75 12 3.25C11.25 3.75 11 4.25 11 4.75C11 5.5 11.5 5.75 12 5.75ZM8 7.25C8.41421 7.25 8.75 7.58579 8.75 8V10.25H11.25V8C11.25 7.58579 11.5858 7.25 12 7.25C12.4142 7.25 12.75 7.58579 12.75 8V10.25H15.25V8C15.25 7.58579 15.5858 7.25 16 7.25C16.4142 7.25 16.75 7.58579 16.75 8V10.25H18.5C19.7426 10.25 20.75 11.2574 20.75 12.5V15.9913V16.0076V20.25H21.75C22.1642 20.25 22.5 20.5858 22.5 21C22.5 21.4142 22.1642 21.75 21.75 21.75H20H4H2.25C1.83579 21.75 1.5 21.4142 1.5 21C1.5 20.5858 1.83579 20.25 2.25 20.25H3.25V16.0087V15.9924V12.5C3.25 11.2574 4.25736 10.25 5.5 10.25H7.25V8C7.25 7.58579 7.58579 7.25 8 7.25ZM19.25 12.5V15.625L18.75 16C18.3056 16.3333 17.6944 16.3333 17.25 16L15.65 14.8C14.6722 14.0667 13.3278 14.0667 12.35 14.8L10.75 16C10.3056 16.3333 9.69444 16.3333 9.25 16L7.65 14.8C6.79985 14.1624 5.67251 14.0792 4.75 14.5503V12.5C4.75 12.0858 5.08579 11.75 5.5 11.75H8H12H16H18.5C18.9142 11.75 19.25 12.0858 19.25 12.5ZM4.75 20.25V16.375L5.25 16C5.69444 15.6667 6.30556 15.6667 6.75 16L8.35 17.2C9.32778 17.9333 10.6722 17.9333 11.65 17.2L13.25 16C13.6944 15.6667 14.3056 15.6667 14.75 16L16.35 17.2C17.2001 17.8376 18.3275 17.9208 19.25 17.4497V20.25H4.75ZM17 4.75C17 5.5 16.5 5.75 16 5.75C15.5 5.75 15 5.5 15 4.75C15 4.25 15.25 3.75 16 3.25C16.75 3.75 17 4.25 17 4.75ZM8 5.75C8.5 5.75 9 5.5 9 4.75C9 4.25 8.75 3.75 8 3.25C7.25 3.75 7 4.25 7 4.75C7 5.5 7.5 5.75 8 5.75Z" fill="#002B51"/>
</svg>
